X: 1
T: Another Fall
C: David A Kaynor 2017
%D:2017
R: air, march
Z: 2021 John Chambers <jc:trillian.mit.edu>
S: "The Compositions of David A.Kaynor"
S: Dave_Kaynors_Melodies_and_Harmonies.PDF
M: 4/4
L: 1/8
K: G
Bc |\
"G"d4 c2B2 | "D"A3D GA-A2 | "G"B2d2 "Am"c2B2 | "D"A3D D4 |
"G"d4 c2B2 | "D"A3D GA-A2 | "Am"B3c "D"A3G | "G"G6 :|
cd |\
"C"e2g2 "Am"a3g | "C"g2e2- e2cA | "G"B2d2 "Am"c2B2 | "D"[A6D6] AB |
"C"c2e2 "G"d3B | "D"A3D D2GA | "G/B"B2d2 "Am"c2B2 | "D"[A6D6] cd |
"C"e2g2 "Am"a3g | "C"g2e2- e2cA | "G"B2d2 "Am"c2B2 | "D"[A6D6] Bc |
"G"d4 c2B2 | "D"A3D GA-A2 | "Am"B3c "D"A3G | "G"G6 :|
